X: 220
T:I'll Tell My Ma
R:polka
Z:added by Alf warnock alf0@rogers.com - www.alfwarnock.info/alfs
M:2/4
L:1/8
K:D
F/2|"D"A,DF>G|"G"GG"D"F>G|"A7"FEE>F|"D"EDD>F|
"D"A,DF>G|"G"GG"D"F>G|"A7"FEE>F|"D"EDD2||
"D"AAAF|"G"GGGE|"D"FF/2F/2FD|"A7"ECB,<A,|
"D"AAAF|"G"GGG2|"D"FD/2D/2"A7"EC|"D"DDD2|]
